X:378
T: ES HUETET EIN SCHAEFER
N: E0212B
O: Europa, Mitteleuropa, Deutschland, Hessen, Oppenheim; Lerchheim
R: erzaehlendes Volks - Lied, Mahn -, Moral - Lied, Strafe; Rabenmutter
M: 6/8
L: 1/8
K: A
E | EAAAcc | ceee2e | c4z
E | EAAAcc | ceee2e | c4z
c | c2ee2e | f2ec2e | c4z
c | c2ee2e | f2ec2
e | cAAB2E | A4z

